images/quitterz-name.svg

<svg fill="none" height="231" viewBox="0 0 895 231" width="895" xmlns="http://www.w3.org/2000/svg"><path d="m92.037.943985c59.136 0 88.832 42.752015 88.832 87.808015 0 42.24-26.112 74.752-61.952 85.504-.512 1.28.512 2.304 2.048 3.84 13.056 12.544 36.608 33.536 57.088 40.192 9.472 3.072 17.92 3.584 23.808 3.584 2.56 0 8.704-.768 12.288-2.304 1.536.256 2.048 2.56 1.28 3.84-8.192 4.608-19.712 6.656-28.672 6.656-11.776 0-26.368-2.56-41.472-9.472-20.992-9.728-37.888-24.576-47.36-33.792-7.68-7.68-9.984-8.192-17.152-9.472-6.656-1.024-15.872-2.56-25.088-6.144-34.048-12.8-54.783999-43.264-54.783999-79.872 0-51.2 38.399999-90.368015 91.135999-90.368015zm3.328 169.216015c30.72 0 59.904-23.04 59.904-73.472 0-42.24-18.688-87.80801-67.584-87.80801-26.624 0-61.184 18.17601-61.184 74.24001 0 37.888 18.432 87.04 68.864 87.04zm140.524-76.544v42.752c0 17.664 4.352 29.44 23.808 29.44 6.912 0 15.104-2.816 20.736-7.68 3.328-3.072 5.12-6.912 5.12-14.848v-41.984c0-16.64-1.792-17.152-9.472-20.224l-3.328-1.28c-1.792-1.024-1.792-4.608.256-5.632 10.24-.256 24.32-2.048 29.952-4.608 1.28.256 2.048.768 2.304 1.792-.512 4.864-.768 12.8-.768 22.272v43.008c0 20.224.768 27.904 7.936 27.904 3.072 0 6.4-.512 9.984-1.28 1.536 1.28 1.792 6.4-.256 7.424-9.984 2.048-24.832 4.608-33.536 9.472-1.28 0-2.56-.768-3.072-1.792v-10.496c0-2.304-.768-3.584-2.304-3.584-7.68 4.864-20.224 13.312-35.328 13.312-22.528 0-30.976-11.264-30.976-32v-42.752c0-16.128 0-18.432-7.68-21.76l-3.072-1.28c-1.536-1.28-1.28-4.864.512-5.632 11.776-.256 21.76-2.56 27.392-4.608 1.536.256 2.304.768 2.56 1.792-.512 4.352-.768 9.728-.768 22.272zm125.624 51.712v-44.8c0-9.984 0-11.264-6.912-15.872l-2.304-1.536c-1.024-1.024-1.024-3.84.256-4.608 5.888-2.048 20.48-8.704 26.368-12.544 1.28 0 2.304.512 2.56 1.536-.512 8.96-1.024 21.248-1.024 31.744v46.08c0 18.432.512 20.992 9.728 22.272l5.376.768c1.792 1.28 1.28 5.632-.512 6.4-7.68-.512-15.104-.768-24.064-.768-9.216 0-16.896.256-24.064.768-1.792-.768-2.304-5.12-.512-6.4l5.376-.768c9.472-1.28 9.728-3.84 9.728-22.272zm8.448-131.072c7.68 0 12.8 6.144 12.8 13.312 0 9.216-6.4 13.312-13.568 13.312-7.936 0-13.056-5.888-13.056-12.8 0-8.448 6.144-13.824 13.824-13.824zm117.462 69.632h-28.928c-4.352 0-4.608.768-4.608 6.144v47.872c0 14.848 1.792 28.416 18.688 28.416 2.56 0 4.864-.512 6.912-1.28 2.304-.768 5.632-3.584 6.4-3.584 2.048 0 3.072 2.816 2.56 4.352-4.608 5.376-13.824 11.776-26.88 11.776-22.016 0-26.624-12.288-26.624-27.648v-58.624c0-6.912-.256-7.424-5.376-7.424h-7.168c-1.536-1.024-1.792-3.84-.768-5.376 7.424-2.304 13.824-5.632 16.384-7.936 3.328-3.072 8.192-9.984 10.752-15.104 1.28-.512 4.352-.512 5.376 1.28v11.52c0 4.608.256 4.864 4.608 4.864h28.416c3.072 2.304 2.56 9.216.256 10.752zm88.74 0h-28.928c-4.352 0-4.608.768-4.608 6.144v47.872c0 14.848 1.792 28.416 18.688 28.416 2.56 0 4.864-.512 6.912-1.28 2.304-.768 5.632-3.584 6.4-3.584 2.048 0 3.072 2.816 2.56 4.352-4.608 5.376-13.824 11.776-26.88 11.776-22.016 0-26.624-12.288-26.624-27.648v-58.624c0-6.912-.256-7.424-5.376-7.424h-7.168c-1.536-1.024-1.792-3.84-.768-5.376 7.424-2.304 13.824-5.632 16.384-7.936 3.328-3.072 8.192-9.984 10.752-15.104 1.28-.512 4.352-.512 5.376 1.28v11.52c0 4.608.256 4.864 4.608 4.864h28.416c3.072 2.304 2.56 9.216.256 10.752zm94.372 24.576h-47.36c-6.656 0-6.912.512-6.912 6.912 0 25.856 15.104 47.872 42.496 47.872 8.448 0 15.616-2.56 23.552-12.544 2.56-.768 4.352.768 4.608 3.072-8.448 17.408-26.88 23.808-40.192 23.808-16.64 0-29.696-7.168-37.12-16.896-7.68-9.984-10.752-22.016-10.752-33.28 0-31.488 20.736-57.856 51.456-57.856 22.016 0 36.352 15.104 36.352 30.464 0 3.584-.512 5.632-1.024 6.656-.768 1.536-4.352 1.792-15.104 1.792zm-49.664-7.68h18.176c18.944 0 24.576-1.024 26.624-2.56.768-.512 1.536-1.536 1.536-4.864 0-7.168-4.864-16.128-19.712-16.128-15.104 0-28.16 13.824-28.416 22.272 0 .512 0 1.28 1.792 1.28zm105.852 44.544v-44.8c0-9.984 0-11.264-6.912-15.872l-2.304-1.536c-1.024-1.024-1.024-3.84.256-4.608 5.888-2.048 19.456-8.704 25.856-12.544 1.28.256 2.048.768 2.048 1.792v14.848c0 1.28.256 2.048.768 2.304 8.96-7.424 18.688-15.36 28.16-15.36 6.4 0 11.52 4.096 11.52 10.24 0 8.448-6.912 11.776-11.008 11.776-2.56 0-3.84-.768-5.632-1.792-3.84-2.56-7.68-4.096-11.264-4.096-4.096 0-7.168 2.304-9.216 5.12-2.56 3.584-3.328 11.008-3.328 19.712v34.816c0 18.432.512 21.504 10.24 22.272l9.216.768c1.792 1.28 1.28 5.632-.512 6.4-12.032-.512-19.456-.768-28.416-.768-9.216 0-16.896.256-23.552.768-1.792-.768-2.304-5.12-.512-6.4l4.864-.768c9.472-1.536 9.728-3.84 9.728-22.272zm129.508 28.672h-23.04c-13.824 0-23.808.256-26.88.768-1.024-.512-1.536-1.536-1.536-2.56 5.12-6.144 16.896-24.32 24.576-37.632l27.136-46.08c4.096-7.168 2.304-7.68-2.304-7.68h-17.664c-7.68 0-13.824.768-17.664 3.84-4.352 3.328-6.912 9.216-9.216 14.848-1.28 1.536-5.12 1.024-5.888-1.024.512-6.656 4.864-23.808 8.448-29.952.768-.512 2.304-.512 3.072 0 .768 4.352 3.584 4.608 18.176 4.608h36.352c6.912 0 11.776 0 15.616-.768 1.024.512 1.536 1.28 1.28 2.56-5.376 7.424-11.52 16.896-18.944 29.184l-30.976 51.968c-5.376 9.216-4.864 10.24 4.864 10.24h8.704c9.984 0 23.04 0 30.208-7.68 2.816-3.072 5.376-8.448 8.192-14.848 1.792-1.024 4.864-.512 5.632 1.536-2.304 12.544-6.144 24.576-9.472 29.44-8.448-.512-16.896-.768-28.672-.768z" fill="#000"/></svg>

<svg width="895" height="231" viewBox="0 0 895 231" fill="none" xmlns="http://www.w3.org/2000/svg">
<path d="M92.037 0.943985C151.173 0.943985 180.869 43.696 180.869 88.752C180.869 130.992 154.757 163.504 118.917 174.256C118.405 175.536 119.429 176.56 120.965 178.096C134.021 190.64 157.573 211.632 178.053 218.288C187.525 221.36 195.973 221.872 201.861 221.872C204.421 221.872 210.565 221.104 214.149 219.568C215.685 219.824 216.197 222.128 215.429 223.408C207.237 228.016 195.717 230.064 186.757 230.064C174.981 230.064 160.389 227.504 145.285 220.592C124.293 210.864 107.397 196.016 97.925 186.8C90.245 179.12 87.941 178.608 80.773 177.328C74.117 176.304 64.901 174.768 55.685 171.184C21.637 158.384 0.901001 127.92 0.901001 91.312C0.901001 40.112 39.301 0.943985 92.037 0.943985ZM95.365 170.16C126.085 170.16 155.269 147.12 155.269 96.688C155.269 54.448 136.581 8.87999 87.685 8.87999C61.061 8.87999 26.501 27.056 26.501 83.12C26.501 121.008 44.933 170.16 95.365 170.16ZM235.889 93.616V136.368C235.889 154.032 240.241 165.808 259.697 165.808C266.609 165.808 274.801 162.992 280.433 158.128C283.761 155.056 285.553 151.216 285.553 143.28V101.296C285.553 84.656 283.761 84.144 276.081 81.072L272.753 79.792C270.961 78.768 270.961 75.184 273.009 74.16C283.249 73.904 297.329 72.112 302.961 69.552C304.241 69.808 305.009 70.32 305.265 71.344C304.753 76.208 304.497 84.144 304.497 93.616V136.624C304.497 156.848 305.265 164.528 312.433 164.528C315.505 164.528 318.833 164.016 322.417 163.248C323.953 164.528 324.209 169.648 322.161 170.672C312.177 172.72 297.329 175.28 288.625 180.144C287.345 180.144 286.065 179.376 285.553 178.352V167.856C285.553 165.552 284.785 164.272 283.249 164.272C275.569 169.136 263.025 177.584 247.921 177.584C225.393 177.584 216.945 166.32 216.945 145.584V102.832C216.945 86.704 216.945 84.4 209.265 81.072L206.193 79.792C204.657 78.512 204.913 74.928 206.705 74.16C218.481 73.904 228.465 71.6 234.097 69.552C235.633 69.808 236.401 70.32 236.657 71.344C236.145 75.696 235.889 81.072 235.889 93.616ZM361.513 145.328V100.528C361.513 90.544 361.513 89.264 354.601 84.656L352.297 83.12C351.273 82.096 351.273 79.28 352.553 78.512C358.441 76.464 373.033 69.808 378.921 65.968C380.201 65.968 381.225 66.48 381.481 67.504C380.969 76.464 380.457 88.752 380.457 99.248V145.328C380.457 163.76 380.969 166.32 390.185 167.6L395.561 168.368C397.353 169.648 396.841 174 395.049 174.768C387.369 174.256 379.945 174 370.985 174C361.769 174 354.089 174.256 346.921 174.768C345.129 174 344.617 169.648 346.409 168.368L351.785 167.6C361.257 166.32 361.513 163.76 361.513 145.328ZM369.961 14.256C377.641 14.256 382.761 20.4 382.761 27.568C382.761 36.784 376.361 40.88 369.193 40.88C361.257 40.88 356.137 34.992 356.137 28.08C356.137 19.632 362.281 14.256 369.961 14.256ZM487.423 83.888H458.495C454.143 83.888 453.887 84.656 453.887 90.032V137.904C453.887 152.752 455.679 166.32 472.575 166.32C475.135 166.32 477.439 165.808 479.487 165.04C481.791 164.272 485.119 161.456 485.887 161.456C487.935 161.456 488.959 164.272 488.447 165.808C483.839 171.184 474.623 177.584 461.567 177.584C439.551 177.584 434.943 165.296 434.943 149.936V91.312C434.943 84.4 434.687 83.888 429.567 83.888H422.399C420.863 82.864 420.607 80.048 421.631 78.512C429.055 76.208 435.455 72.88 438.015 70.576C441.343 67.504 446.207 60.592 448.767 55.472C450.047 54.96 453.119 54.96 454.143 56.752V68.272C454.143 72.88 454.399 73.136 458.751 73.136H487.167C490.239 75.44 489.727 82.352 487.423 83.888ZM576.163 83.888H547.235C542.883 83.888 542.627 84.656 542.627 90.032V137.904C542.627 152.752 544.419 166.32 561.315 166.32C563.875 166.32 566.179 165.808 568.227 165.04C570.531 164.272 573.859 161.456 574.627 161.456C576.675 161.456 577.699 164.272 577.187 165.808C572.579 171.184 563.363 177.584 550.307 177.584C528.291 177.584 523.683 165.296 523.683 149.936V91.312C523.683 84.4 523.427 83.888 518.307 83.888H511.139C509.603 82.864 509.347 80.048 510.371 78.512C517.795 76.208 524.195 72.88 526.755 70.576C530.083 67.504 534.947 60.592 537.507 55.472C538.787 54.96 541.859 54.96 542.883 56.752V68.272C542.883 72.88 543.139 73.136 547.491 73.136H575.907C578.979 75.44 578.467 82.352 576.163 83.888ZM670.535 108.464H623.175C616.519 108.464 616.263 108.976 616.263 115.376C616.263 141.232 631.367 163.248 658.759 163.248C667.207 163.248 674.375 160.688 682.311 150.704C684.871 149.936 686.663 151.472 686.919 153.776C678.471 171.184 660.039 177.584 646.727 177.584C630.087 177.584 617.031 170.416 609.607 160.688C601.927 150.704 598.855 138.672 598.855 127.408C598.855 95.92 619.591 69.552 650.311 69.552C672.327 69.552 686.663 84.656 686.663 100.016C686.663 103.6 686.151 105.648 685.639 106.672C684.871 108.208 681.287 108.464 670.535 108.464ZM620.871 100.784H639.047C657.991 100.784 663.623 99.76 665.671 98.224C666.439 97.712 667.207 96.688 667.207 93.36C667.207 86.192 662.343 77.232 647.495 77.232C632.391 77.232 619.335 91.056 619.079 99.504C619.079 100.016 619.079 100.784 620.871 100.784ZM726.723 145.328V100.528C726.723 90.544 726.723 89.264 719.811 84.656L717.507 83.12C716.483 82.096 716.483 79.28 717.763 78.512C723.651 76.464 737.219 69.808 743.619 65.968C744.899 66.224 745.667 66.736 745.667 67.76V82.608C745.667 83.888 745.923 84.656 746.435 84.912C755.395 77.488 765.123 69.552 774.595 69.552C780.995 69.552 786.115 73.648 786.115 79.792C786.115 88.24 779.203 91.568 775.107 91.568C772.547 91.568 771.267 90.8 769.475 89.776C765.635 87.216 761.795 85.68 758.211 85.68C754.115 85.68 751.043 87.984 748.995 90.8C746.435 94.384 745.667 101.808 745.667 110.512V145.328C745.667 163.76 746.179 166.832 755.907 167.6L765.123 168.368C766.915 169.648 766.403 174 764.611 174.768C752.579 174.256 745.155 174 736.195 174C726.979 174 719.299 174.256 712.643 174.768C710.851 174 710.339 169.648 712.131 168.368L716.995 167.6C726.467 166.064 726.723 163.76 726.723 145.328ZM856.231 174H833.191C819.367 174 809.383 174.256 806.311 174.768C805.287 174.256 804.775 173.232 804.775 172.208C809.895 166.064 821.671 147.888 829.351 134.576L856.487 88.496C860.583 81.328 858.791 80.816 854.183 80.816H836.519C828.839 80.816 822.695 81.584 818.855 84.656C814.503 87.984 811.943 93.872 809.639 99.504C808.359 101.04 804.519 100.528 803.751 98.48C804.263 91.824 808.615 74.672 812.199 68.528C812.967 68.016 814.503 68.016 815.271 68.528C816.039 72.88 818.855 73.136 833.447 73.136H869.799C876.711 73.136 881.575 73.136 885.415 72.368C886.439 72.88 886.951 73.648 886.695 74.928C881.319 82.352 875.175 91.824 867.751 104.112L836.775 156.08C831.399 165.296 831.911 166.32 841.639 166.32H850.343C860.327 166.32 873.383 166.32 880.551 158.64C883.367 155.568 885.927 150.192 888.743 143.792C890.535 142.768 893.607 143.28 894.375 145.328C892.071 157.872 888.231 169.904 884.903 174.768C876.455 174.256 868.007 174 856.231 174Z" fill="black"/>
</svg>
